humanity-icon-theme/Humanity/actions/128/edit-delete.svg

<?xml version="1.0" encoding="UTF-8" standalone="no"?>
<!-- Created with Inkscape (http://www.inkscape.org/) -->

<svg
   xmlns:dc="http://purl.org/dc/elements/1.1/"
   xmlns:cc="http://creativecommons.org/ns#"
   xmlns:rdf="http://www.w3.org/1999/02/22-rdf-syntax-ns#"
   xmlns:svg="http://www.w3.org/2000/svg"
   xmlns="http://www.w3.org/2000/svg"
   xmlns:xlink="http://www.w3.org/1999/xlink"
   xmlns:sodipodi="http://sodipodi.sourceforge.net/DTD/sodipodi-0.dtd"
   xmlns:inkscape="http://www.inkscape.org/namespaces/inkscape"
   width="128"
   height="128"
   id="svg3041"
   version="1.1"
   inkscape:version="0.47 r22583"
   sodipodi:docname="New document 2.2010_04_22_20_59_30.0.svg">
  <defs
     id="defs3043">
    <linearGradient
       inkscape:collect="always"
       xlink:href="#linearGradient4873-2-7"
       id="linearGradient2986"
       gradientUnits="userSpaceOnUse"
       gradientTransform="matrix(4.2307467,0,0,-4.2306506,-198.63853,-15.401776)"
       x1="63.397362"
       y1="-12.489107"
       x2="63.397362"
       y2="5.4675598" />
    <linearGradient
       id="linearGradient4873-2-7">
      <stop
         offset="0"
         style="stop-color:#ffffff;stop-opacity:1"
         id="stop4875-7-7" />
      <stop
         offset="1"
         style="stop-color:#ffffff;stop-opacity:0"
         id="stop4877-6-7" />
    </linearGradient>
    <linearGradient
       inkscape:collect="always"
       xlink:href="#linearGradient3781"
       id="linearGradient2989"
       gradientUnits="userSpaceOnUse"
       gradientTransform="matrix(2.6667147,0,0,2.6667147,0.9681932,-68.216678)"
       x1="24.481066"
       y1="5.0808945"
       x2="24.481066"
       y2="45.074459" />
    <linearGradient
       id="linearGradient3781">
      <stop
         id="stop3783"
         style="stop-color:#ffffff;stop-opacity:1"
         offset="0" />
      <stop
         id="stop3785"
         style="stop-color:#ffffff;stop-opacity:0"
         offset="1" />
    </linearGradient>
    <linearGradient
       x1="63.397362"
       y1="-12.489107"
       x2="63.397362"
       y2="5.4675598"
       id="linearGradient2407"
       xlink:href="#linearGradient4873"
       gradientUnits="userSpaceOnUse"
       gradientTransform="matrix(5.64345,0,0,5.6429422,-286.50588,19.309326)" />
    <linearGradient
       id="linearGradient4873">
      <stop
         id="stop4875"
         style="stop-color:#ffffff;stop-opacity:1"
         offset="0" />
      <stop
         id="stop4877"
         style="stop-color:#ffffff;stop-opacity:0"
         offset="1" />
    </linearGradient>
    <radialGradient
       inkscape:collect="always"
       xlink:href="#linearGradient3242"
       id="radialGradient2980"
       gradientUnits="userSpaceOnUse"
       gradientTransform="matrix(0,6.102135,-8.0552513,0,96.659483,-202.25671)"
       cx="23.895569"
       cy="3.9900031"
       fx="23.895569"
       fy="3.9900031"
       r="20.397499" />
    <linearGradient
       id="linearGradient3242">
      <stop
         id="stop3244"
         style="stop-color:#f8b17e;stop-opacity:1"
         offset="0" />
      <stop
         id="stop3246"
         style="stop-color:#e35d4f;stop-opacity:1"
         offset="0.26238" />
      <stop
         id="stop3248"
         style="stop-color:#c6262e;stop-opacity:1"
         offset="0.66093999" />
      <stop
         id="stop3250"
         style="stop-color:#690b54;stop-opacity:1"
         offset="1" />
    </linearGradient>
    <linearGradient
       inkscape:collect="always"
       xlink:href="#linearGradient2490"
       id="linearGradient2982"
       gradientUnits="userSpaceOnUse"
       gradientTransform="matrix(2.5569423,0,0,2.5567709,3.1523875,-61.864616)"
       x1="18.379412"
       y1="44.980297"
       x2="18.379412"
       y2="3.0816143" />
    <linearGradient
       id="linearGradient2490">
      <stop
         id="stop2492"
         style="stop-color:#791235;stop-opacity:1"
         offset="0" />
      <stop
         id="stop2494"
         style="stop-color:#dd3b27;stop-opacity:1"
         offset="1" />
    </linearGradient>
    <linearGradient
       id="linearGradient8838">
      <stop
         id="stop8840"
         style="stop-color:#000000;stop-opacity:1"
         offset="0" />
      <stop
         id="stop8842"
         style="stop-color:#000000;stop-opacity:0"
         offset="1" />
    </linearGradient>
    <radialGradient
       r="10.625"
       fy="4.625"
       fx="62.625"
       cy="4.625"
       cx="62.625"
       gradientTransform="matrix(5.1764711,0,0,1.8003882,-260.17648,33.544036)"
       gradientUnits="userSpaceOnUse"
       id="radialGradient3039"
       xlink:href="#linearGradient8838"
       inkscape:collect="always" />
  </defs>
  <sodipodi:namedview
     id="base"
     pagecolor="#ffffff"
     bordercolor="#666666"
     borderopacity="1.0"
     inkscape:pageopacity="0.0"
     inkscape:pageshadow="2"
     inkscape:zoom="5.5"
     inkscape:cx="32"
     inkscape:cy="31.272727"
     inkscape:current-layer="layer1"
     showgrid="true"
     inkscape:document-units="px"
     inkscape:grid-bbox="true"
     inkscape:window-width="639"
     inkscape:window-height="486"
     inkscape:window-x="413"
     inkscape:window-y="161"
     inkscape:window-maximized="0" />
  <metadata
     id="metadata3046">
    <rdf:RDF>
      <cc:Work
         rdf:about="">
        <dc:format>image/svg+xml</dc:format>
        <dc:type
           rdf:resource="http://purl.org/dc/dcmitype/StillImage" />
      </cc:Work>
    </rdf:RDF>
  </metadata>
  <g
     id="layer1"
     inkscape:label="Layer 1"
     inkscape:groupmode="layer"
     transform="translate(0,64)">
    <path
       d="M 119,41.870846 C 119,52.43558 94.375669,61 64.000004,61 33.624344,61 9.000001,52.43558 9.000001,41.870846 c 0,-10.56475 24.624343,-19.129157 55.000003,-19.129157 C 94.375669,22.741689 119,31.306096 119,41.870846 l 0,0 z"
       id="path8836"
       style="opacity:0.5;fill:url(#radialGradient3039);fill-opacity:1;fill-rule:evenodd;stroke:none;stroke-width:1;marker:none;visibility:visible;display:inline;overflow:visible" />
    <path
       style="fill:url(#radialGradient2980);fill-opacity:1;stroke:url(#linearGradient2982);stroke-width:0.99915248;stroke-linecap:round;stroke-linejoin:round;stroke-miterlimit:4;stroke-opacity:1;stroke-dasharray:none;stroke-dashoffset:0"
       d="M 64.53125,-52.531254 C 35.829624,-52.531254 12.5,-29.199707 12.5,-0.500004 12.5,28.199687 35.829624,51.5 64.53125,51.5 c 28.701614,0 52.00003,-23.300313 52,-52.000004 0,-28.699703 -23.298386,-52.03125 -52,-52.03125 z M 64.5,-36.500004 c 19.882251,0 36,16.117749 36,36 0,8.363309 -2.871942,16.044551 -7.65625,22.15625 l -46.0625,-53.46875 c 5.235326,-2.969921 11.269735,-4.6875 17.71875,-4.6875 z m -28.3125,13.78125 46.0625,53.53125 c -5.240713,2.97819 -11.291327,4.6875 -17.75,4.6875 -19.882251,0 -36,-16.117749 -36,-36 0,-8.387825 2.877814,-16.098466 7.6875,-22.21875 z"
       id="path2555" />
    <path
       d="M 115.5,-0.504004 C 115.5,26.752949 93.199766,50.73741 64.519635,50.5 35.007083,50.25468 13.845569,26.750518 13.5,-0.504004 13.143881,-28.590622 36.786661,-51.61871 64.519635,-51.500004 91.775038,-51.383342 115.5,-29.540274 115.5,-0.504004 l 0,0 z"
       id="path8655"
       style="opacity:0.4;fill:none;stroke:url(#linearGradient2407);stroke-width:0.99915248;stroke-miterlimit:4;stroke-opacity:1;stroke-dasharray:none" />
    <path
       d="M 45.881465,-31.075657 91.806524,21.838769"
       id="path3270"
       style="opacity:0.4;fill:none;stroke:url(#linearGradient2989);stroke-width:0.99999994px;stroke-linecap:round;stroke-linejoin:miter;stroke-opacity:1"
       sodipodi:nodetypes="cc" />
    <path
       style="opacity:0.2;fill:none;stroke:url(#linearGradient2986);stroke-width:1;stroke-miterlimit:4;stroke-opacity:1;stroke-dasharray:none"
       id="path8655-9-6"
       d="m 36.082262,-24.225182 c -5.348756,6.416402 -8.566633,14.671373 -8.566633,23.677836 0,20.434249 16.565745,36.998687 37.000465,36.998687 6.784098,0 13.142004,-1.82601 18.608866,-5.013398 m 9.987998,-8.507189 c 5.250393,-6.387251 8.402662,-14.564506 8.402662,-23.4781 l 0,0 c 0,-20.435194 -16.566677,-37.001312 -36.999526,-37.001312"
       sodipodi:nodetypes="cssccccs" />
  </g>
</svg>

<?xml version="1.0" encoding="UTF-8" standalone="no"?>
<!-- Created with Inkscape (http://www.inkscape.org/) -->
<svg id="svg3041" xmlns:rdf="http://www.w3.org/1999/02/22-rdf-syntax-ns#" xmlns="http://www.w3.org/2000/svg" height="128" width="128" version="1.1" xmlns:cc="http://creativecommons.org/ns#" xmlns:xlink="http://www.w3.org/1999/xlink" xmlns:dc="http://purl.org/dc/elements/1.1/">
 <defs id="defs3043">
  <linearGradient id="linearGradient2986" y2="5.4676" gradientUnits="userSpaceOnUse" x2="63.397" gradientTransform="matrix(4.2307 0 0 -4.2307 -198.64 -15.402)" y1="-12.489" x1="63.397">
   <stop id="stop4875-7-7" style="stop-color:#fff" offset="0"/>
   <stop id="stop4877-6-7" style="stop-color:#fff;stop-opacity:0" offset="1"/>
  </linearGradient>
  <linearGradient id="linearGradient2989" y2="45.074" gradientUnits="userSpaceOnUse" x2="24.481" gradientTransform="matrix(2.6667 0 0 2.6667 .96819 -68.217)" y1="5.0809" x1="24.481">
   <stop id="stop3783" style="stop-color:#fff" offset="0"/>
   <stop id="stop3785" style="stop-color:#fff;stop-opacity:0" offset="1"/>
  </linearGradient>
  <linearGradient id="linearGradient2407" y2="5.4676" gradientUnits="userSpaceOnUse" x2="63.397" gradientTransform="matrix(5.6434 0 0 5.6429 -286.51 19.309)" y1="-12.489" x1="63.397">
   <stop id="stop4875" style="stop-color:#fff" offset="0"/>
   <stop id="stop4877" style="stop-color:#fff;stop-opacity:0" offset="1"/>
  </linearGradient>
  <radialGradient id="radialGradient2980" gradientUnits="userSpaceOnUse" cy="3.99" cx="23.896" gradientTransform="matrix(0 6.1021 -8.0553 0 96.659 -202.26)" r="20.397">
   <stop id="stop3244" style="stop-color:#f8b17e" offset="0"/>
   <stop id="stop3246" style="stop-color:#e35d4f" offset=".26238"/>
   <stop id="stop3248" style="stop-color:#c6262e" offset=".66094"/>
   <stop id="stop3250" style="stop-color:#690b54" offset="1"/>
  </radialGradient>
  <linearGradient id="linearGradient2982" y2="3.0816" gradientUnits="userSpaceOnUse" x2="18.379" gradientTransform="matrix(2.5569 0 0 2.5568 3.1524 -61.865)" y1="44.98" x1="18.379">
   <stop id="stop2492" style="stop-color:#791235" offset="0"/>
   <stop id="stop2494" style="stop-color:#dd3b27" offset="1"/>
  </linearGradient>
  <radialGradient id="radialGradient3039" gradientUnits="userSpaceOnUse" cx="62.625" cy="4.625" r="10.625" gradientTransform="matrix(5.1765 0 0 1.8004 -260.18 33.544)">
   <stop id="stop8840" offset="0"/>
   <stop id="stop8842" style="stop-opacity:0" offset="1"/>
  </radialGradient>
 </defs>
 <metadata id="metadata3046">
  <rdf:RDF>
   <cc:Work rdf:about="">
    <dc:format>image/svg+xml</dc:format>
    <dc:type rdf:resource="http://purl.org/dc/dcmitype/StillImage"/>
   </cc:Work>
  </rdf:RDF>
 </metadata>
 <g id="layer1" transform="translate(0,64)">
  <path id="path8836" style="opacity:.5;fill-rule:evenodd;fill:url(#radialGradient3039)" d="m119 41.871c0 10.565-24.624 19.129-55 19.129s-55-8.564-55-19.129 24.624-19.129 55-19.129 55 8.564 55 19.129z"/>
  <path id="path2555" style="stroke-linejoin:round;stroke:url(#linearGradient2982);stroke-linecap:round;stroke-width:.99915;fill:url(#radialGradient2980)" d="m64.531-52.531c-28.701 0-52.031 23.331-52.031 52.031s23.33 52 52.031 52c28.702 0 52-23.3 52-52s-23.298-52.031-52-52.031zm-0.031 16.031c19.882 0 36 16.118 36 36 0 8.3633-2.8719 16.045-7.6562 22.156l-46.062-53.469c5.2353-2.9699 11.27-4.6875 17.719-4.6875zm-28.312 13.781 46.062 53.531c-5.2407 2.9782-11.291 4.6875-17.75 4.6875-19.882 0-36-16.118-36-36 0-8.3878 2.8778-16.098 7.6875-22.219z"/>
  <path id="path8655" style="opacity:.4;stroke:url(#linearGradient2407);stroke-width:.99915;fill:none" d="m115.5-0.504c0 27.257-22.3 51.241-50.98 51.004-29.513-0.245-50.674-23.749-51.02-51.004-0.356-28.087 23.287-51.115 51.02-50.996 27.255 0.117 50.98 21.96 50.98 50.996z"/>
  <path id="path3270" style="opacity:.4;stroke:url(#linearGradient2989);stroke-linecap:round;stroke-width:1px;fill:none" d="m45.881-31.076 45.926 52.915"/>
  <path id="path8655-9-6" style="opacity:.2;stroke:url(#linearGradient2986);fill:none" d="m36.082-24.225c-5.3488 6.4164-8.5666 14.671-8.5666 23.678 0 20.434 16.566 36.999 37 36.999 6.7841 0 13.142-1.826 18.609-5.0134m9.988-8.5072c5.2504-6.3873 8.4027-14.565 8.4027-23.478 0-20.435-16.567-37.001-37-37.001"/>
 </g>
</svg>
